X: 1
T: Kyrkmarsch frn \~nstervla
O: Uppland
R: Marsch
C: Olov Jansson 
N: Nedtecknad ur minnet, s rttningar r vlkomna.
Z: Nils L, 2008-09-02
M: 2/4
K: Gm
L: 1/16
d2de d2=e^f | g2g2 d4 | c2cA B2B2 | (AG)^FG A4 | d2de d2=e^f | g2g2 d4 | 
e2ed c2f2 | d4>d4 | c2cB A2d2 | B4>B4 | (AB)AG (^FG)AB |1 G8 :|2 G4>F4 |]
|: B2d2 d2ed | c2f2 f2>A2 | B2Bc d2cB | A2d2 d2>A2 | G4 G2AG | 
   F2B2 B2F2 |1 (GF)ED E2C2 | D8 :|2 (GF)ED (CF)Ac | B8 :|
